; generated by Slic3r 1.1.7 on 2014-10-22 at 17:22:21

; perimeters extrusion width = 0.50mm
; infill extrusion width = 0.67mm
; solid infill extrusion width = 0.50mm
; top infill extrusion width = 0.30mm

G21 ; set units to millimeters
M190 S45 ; wait for bed temperature to be reached
M104 S215 ; set temperature
G28 ; home all axes
M109 S215 ; wait for temperature to be reached
G90 ; use absolute coordinates
G92 E0
M82 ; use absolute distances for extrusion
G1 F2100.000 E-3.00000
G1 Z0.250 F15000.000
G92 E0
G1 X73.884 Y66.755 F15000.000
G1 Z0.200 F15000.000
G1 E3.00000 F2100.000
G1 X76.212 Y65.351 E3.02610 F2520.000
G1 X79.791 Y64.634 E3.06114
G1 X105.012 Y64.636 E3.30328
G1 X138.997 Y65.540 E3.62967 F2520.000
G1 X141.025 Y65.878 E3.64941
G1 X142.512 Y66.254 E3.66414
G1 X144.456 Y66.922 E3.68388
G1 X145.861 Y67.538 E3.69860
G1 X147.669 Y68.517 E3.71834
G1 X148.953 Y69.356 E3.73307
G1 X150.576 Y70.619 E3.75281
G1 X151.704 Y71.657 E3.76753
G1 X153.097 Y73.170 E3.78727
G1 X154.039 Y74.380 E3.80200
G1 X155.164 Y76.102 E3.82174
G1 X155.893 Y77.451 E3.83646
G1 X156.719 Y79.334 E3.85620
G1 X157.217 Y80.784 E3.87093
G1 X157.722 Y82.777 E3.89067
G1 X157.975 Y84.290 E3.90539
G1 X158.170 Y86.770 E3.92927
G1 X159.447 Y124.434 E4.29108
G1 X159.191 Y126.951 E4.31537
G1 X158.813 Y128.790 E4.33340
G1 X158.055 Y131.205 E4.35770
G1 X157.315 Y132.930 E4.37572
G1 X156.087 Y135.142 E4.40001
G1 X155.014 Y136.684 E4.41804
G1 X153.367 Y138.603 E4.44232
G1 X152.005 Y139.897 E4.46036
G1 X150.005 Y141.445 E4.48464
G1 X148.410 Y142.439 E4.50268
G1 X146.140 Y143.553 E4.52696
G1 X144.378 Y144.206 E4.54500
G1 X141.929 Y144.840 E4.56928
G1 X140.072 Y145.124 E4.58732
G1 X137.098 Y145.264 E4.61591
G1 X94.207 Y145.362 E5.02769
G1 X92.789 Y145.254 E5.04134
G1 X90.958 Y144.970 E5.05913
G1 X89.455 Y144.627 E5.07393
G1 X87.135 Y143.867 E5.09737
G1 X86.261 Y143.486 E5.10653
G1 X83.586 Y142.066 E5.13560
G1 X81.839 Y140.843 E5.15607
G1 X80.742 Y139.938 E5.16972
G1 X79.167 Y138.408 E5.19081
G1 X78.382 Y137.502 E5.20232
G1 X76.739 Y135.255 E5.22905
G1 X76.432 Y134.727 E5.23491
G1 X75.587 Y133.175 E5.25187
G1 X75.006 Y131.877 E5.26552
G1 X74.348 Y130.040 E5.28426
G1 X73.966 Y128.648 E5.29811
G1 X73.518 Y126.185 E5.32215
G1 X70.505 Y98.920 E5.58551
G1 X70.505 Y73.920 E5.82553
G1 X70.903 Y71.231 E5.85162
G1 X72.062 Y68.772 E5.87772
G1 X73.844 Y66.799 E5.90324
G1 X74.132 Y66.985 F15000.000
G1 X74.198 Y66.914 E5.90417 F2520.000
G1 X76.510 Y65.577 E5.92981
G1 X79.791 Y64.955 E5.96187
G1 X105.005 Y64.958 E6.20394
G1 X138.944 Y65.857 E6.52989 F2520.000
G1 X140.972 Y66.195 E6.54963
G1 X142.407 Y66.558 E6.56385
G1 X144.352 Y67.226 E6.58359
G1 X145.708 Y67.821 E6.59780
G1 X147.516 Y68.800 E6.61754
G1 X148.756 Y69.609 E6.63176
G1 X150.378 Y70.872 E6.65150
G1 X151.468 Y71.875 E6.66571
G1 X152.860 Y73.388 E6.68545
G1 X153.770 Y74.556 E6.69967
G1 X154.894 Y76.278 E6.71941
G1 X155.599 Y77.580 E6.73362
G1 X156.425 Y79.463 E6.75336
G1 X156.906 Y80.863 E6.76758
G1 X157.411 Y82.856 E6.78732
G1 X157.654 Y84.317 E6.80153
G1 X157.849 Y86.782 E6.82527
G1 X159.127 Y124.401 E7.18665
G1 X158.871 Y126.919 E7.21095
G1 X158.506 Y128.694 E7.22835
G1 X157.749 Y131.109 E7.25265
G1 X157.034 Y132.774 E7.27005
G1 X155.806 Y134.986 E7.29434
G1 X154.770 Y136.474 E7.31174
G1 X153.123 Y138.393 E7.33602
G1 X151.808 Y139.643 E7.35344
G1 X149.808 Y141.191 E7.37772
G1 X148.269 Y142.151 E7.39513
G1 X145.998 Y143.264 E7.41942
G1 X144.297 Y143.894 E7.43683
G1 X141.849 Y144.528 E7.46111
G1 X140.056 Y144.803 E7.47853
G1 X137.097 Y144.943 E7.50696
G1 X94.207 Y145.041 E7.91874
G1 X92.838 Y144.936 E7.93192
G1 X91.010 Y144.653 E7.94968
G1 X89.552 Y144.320 E7.96403
G1 X87.254 Y143.568 E7.98725
G1 X86.403 Y143.198 E7.99616
G1 X83.766 Y141.800 E8.02481
G1 X82.024 Y140.580 E8.04523
G1 X80.965 Y139.707 E8.05841
G1 X79.400 Y138.187 E8.07935
G1 X78.637 Y137.307 E8.09053
G1 X77.014 Y135.089 E8.11692
G1 X76.714 Y134.574 E8.12265
G1 X75.870 Y133.021 E8.13961
G1 X75.308 Y131.769 E8.15279
G1 X74.652 Y129.938 E8.17146
G1 X74.281 Y128.587 E8.18491
G1 X73.837 Y126.149 E8.20870
G1 X70.827 Y98.920 E8.47172
G1 X70.827 Y73.920 E8.71173
G1 X71.224 Y71.279 E8.73737
G1 X72.382 Y68.873 E8.76301
G1 X74.092 Y67.029 E8.78715
G1 X74.377 Y67.218 F15000.000
G1 X74.511 Y67.077 E8.78901 F2520.000
G1 X76.806 Y65.809 E8.81419
G1 X79.791 Y65.277 E8.84330
G1 X104.997 Y65.279 E9.08529
G1 X138.891 Y66.174 E9.41081 F2520.000
G1 X140.919 Y66.512 E9.43055
G1 X142.303 Y66.863 E9.44426
G1 X144.248 Y67.530 E9.46400
G1 X145.555 Y68.104 E9.47770
G1 X147.363 Y69.082 E9.49744
G1 X148.558 Y69.863 E9.51115
G1 X150.181 Y71.126 E9.53089
G1 X151.231 Y72.093 E9.54459
G1 X152.624 Y73.606 E9.56433
G1 X153.501 Y74.732 E9.57804
G1 X154.625 Y76.453 E9.59778
G1 X155.305 Y77.709 E9.61148
G1 X156.131 Y79.592 E9.63123
G1 X156.594 Y80.942 E9.64493
G1 X157.099 Y82.935 E9.66467
G1 X157.334 Y84.343 E9.67838
G1 X157.528 Y86.793 E9.70197
G1 X158.808 Y124.369 E10.06293
G1 X158.552 Y126.886 E10.08722
G1 X158.200 Y128.598 E10.10400
G1 X157.442 Y131.012 E10.12830
G1 X156.753 Y132.618 E10.14507
G1 X155.525 Y134.830 E10.16936
G1 X154.526 Y136.265 E10.18614
G1 X152.879 Y138.184 E10.21043
G1 X151.611 Y139.389 E10.22722
G1 X149.611 Y140.937 E10.25150
G1 X148.127 Y141.862 E10.26829
G1 X145.857 Y142.976 E10.29257
G1 X144.217 Y143.583 E10.30936
G1 X141.768 Y144.217 E10.33364
G1 X140.040 Y144.482 E10.35043
G1 X137.097 Y144.621 E10.37872
G1 X94.207 Y144.719 E10.79049
G1 X92.887 Y144.618 E10.80319
G1 X91.062 Y144.336 E10.82093
G1 X89.649 Y144.014 E10.83484
G1 X87.373 Y143.269 E10.85783
G1 X86.546 Y142.910 E10.86649
G1 X83.947 Y141.534 E10.89472
G1 X82.209 Y140.317 E10.91509
G1 X81.188 Y139.475 E10.92779
G1 X79.633 Y137.966 E10.94860
G1 X78.893 Y137.112 E10.95944
G1 X77.289 Y134.923 E10.98550
G1 X76.996 Y134.420 E10.99109
G1 X76.152 Y132.867 E11.00805
G1 X75.611 Y131.660 E11.02076
G1 X74.957 Y129.835 E11.03937
G1 X74.597 Y128.526 E11.05240
G1 X74.157 Y126.113 E11.07595
G1 X71.148 Y98.920 E11.33862
G1 X71.148 Y73.920 E11.57864
G1 X71.546 Y71.328 E11.60381
G1 X72.702 Y68.975 E11.62898
G1 X74.335 Y67.261 E11.65171
G1 X74.617 Y67.454 F15000.000
G1 X74.824 Y67.243 E11.65454 F2520.000
G1 X77.100 Y66.045 E11.67923
G1 X79.791 Y65.598 E11.70542
G1 X104.989 Y65.601 E11.94735
G1 X138.838 Y66.491 E12.27243 F2520.000
G1 X140.866 Y66.829 E12.29217
G1 X142.199 Y67.167 E12.30536
G1 X144.143 Y67.834 E12.32510
G1 X145.402 Y68.386 E12.33830
G1 X147.210 Y69.365 E12.35804
G1 X148.361 Y70.117 E12.37124
G1 X149.984 Y71.380 E12.39098
G1 X150.995 Y72.310 E12.40417
G1 X152.387 Y73.823 E12.42391
G1 X153.232 Y74.908 E12.43711
G1 X154.356 Y76.629 E12.45685
G1 X155.010 Y77.838 E12.47004
G1 X155.836 Y79.721 E12.48978
G1 X156.283 Y81.021 E12.50298
G1 X156.787 Y83.014 E12.52272
G1 X157.014 Y84.370 E12.53592
G1 X157.206 Y86.805 E12.55937
G1 X158.488 Y124.336 E12.91990
G1 X158.232 Y126.854 E12.94420
G1 X157.893 Y128.502 E12.96035
G1 X157.135 Y130.916 E12.98464
G1 X156.472 Y132.462 E13.00080
G1 X155.244 Y134.674 E13.02508
G1 X154.282 Y136.055 E13.04124
G1 X152.635 Y137.975 E13.06553
G1 X151.415 Y139.135 E13.08169
G1 X149.414 Y140.683 E13.10597
G1 X147.986 Y141.573 E13.12214
G1 X145.715 Y142.687 E13.14642
G1 X144.136 Y143.272 E13.16258
G1 X141.688 Y143.906 E13.18687
G1 X140.023 Y144.161 E13.20303
G1 X137.096 Y144.300 E13.23117
G1 X95.974 Y144.398 E13.62597
G1 X92.936 Y144.300 E13.65515
G1 X91.114 Y144.019 E13.67285
G1 X89.746 Y143.707 E13.68632
G1 X87.492 Y142.971 E13.70908
G1 X86.689 Y142.622 E13.71749
G1 X84.127 Y141.267 E13.74531
G1 X83.839 Y141.071 E13.74866
G1 X81.411 Y139.244 E13.77783
G1 X79.867 Y137.745 E13.79849
G1 X79.149 Y136.918 E13.80901
G1 X77.565 Y134.757 E13.83473
G1 X77.279 Y134.266 E13.84018
G1 X75.913 Y131.551 E13.86936
G1 X75.262 Y129.732 E13.88791
G1 X74.913 Y128.465 E13.90053
G1 X74.476 Y126.077 E13.92384
G1 X71.470 Y98.920 E14.18616
G1 X71.470 Y73.920 E14.42618
G1 X71.867 Y71.378 E14.45087
G1 X73.022 Y69.080 E14.47557
G1 X74.575 Y67.497 E14.49686
G1 F2100.000 E11.49686
G1 Z0.250 F15000.000
G92 E0
G1 X145.772 Y131.976 F15000.000
G1 Z0.200 F15000.000
G1 E3.00000 F2100.000
G1 X143.899 Y133.426 E3.02273 F1680.000
G1 X141.773 Y134.469 E3.04547
G1 X139.481 Y135.062 E3.06820
G1 X137.116 Y135.182 E3.09094
G1 X134.776 Y134.824 E3.11367
G1 X132.555 Y134.001 E3.13640
G1 X130.545 Y132.749 E3.15914
G1 X128.829 Y131.117 E3.18187
G1 X127.476 Y129.174 E3.20460
G1 X126.543 Y126.998 E3.22734
G1 X126.062 Y124.658 E3.25027
G1 X126.003 Y123.494 E3.26146
G1 X126.062 Y122.330 E3.27265
G1 X126.543 Y119.991 E3.29558
G1 X127.476 Y117.815 E3.31831
G1 X128.829 Y115.871 E3.34104
G1 X130.545 Y114.240 E3.36378
G1 X132.555 Y112.987 E3.38651
G1 X134.776 Y112.165 E3.40925
G1 X137.116 Y111.806 E3.43198
G1 X139.481 Y111.926 E3.45471
G1 X141.773 Y112.520 E3.47745 F1680.000
G1 X143.899 Y113.563 E3.50018
G1 X145.772 Y115.012 E3.52292
G1 X147.314 Y116.809 E3.54565
G1 X148.464 Y118.879 E3.56838
G1 X149.172 Y121.138 E3.59112
G1 X149.412 Y123.494 E3.61385
G1 X149.172 Y125.850 E3.63658
G1 X148.464 Y128.109 E3.65932
G1 X147.314 Y130.180 E3.68205
G1 X145.811 Y131.931 E3.70421
G1 X145.969 Y132.231 F15000.000
G1 X144.070 Y133.700 E3.72726 F1680.000
G1 X141.886 Y134.772 E3.75062
G1 X139.530 Y135.382 E3.77398
G1 X137.100 Y135.505 E3.79734
G1 X134.695 Y135.136 E3.82070
G1 X132.413 Y134.291 E3.84407
G1 X130.348 Y133.004 E3.86743
G1 X128.584 Y131.328 E3.89079
G1 X127.194 Y129.331 E3.91415
G1 X126.234 Y127.094 E3.93751
G1 X125.742 Y124.699 E3.96099
G1 X125.681 Y123.494 E3.97257
G1 X125.742 Y122.289 E3.98415
G1 X126.234 Y119.894 E4.00763
G1 X127.194 Y117.658 E4.03099
G1 X128.584 Y115.661 E4.05435
G1 X130.348 Y113.984 E4.07772
G1 X132.413 Y112.697 E4.10108
G1 X134.695 Y111.852 E4.12444
G1 X137.100 Y111.484 E4.14780 F1680.000
G1 X139.530 Y111.607 E4.17116
G1 X141.886 Y112.217 E4.19452
G1 X144.070 Y113.288 E4.21788
G1 X145.995 Y114.778 E4.24125
G1 X147.580 Y116.624 E4.26461
G1 X148.760 Y118.752 E4.28797
G1 X149.489 Y121.073 E4.31133
G1 X149.735 Y123.494 E4.33469
G1 X149.489 Y125.915 E4.35805
G1 X148.760 Y128.237 E4.38142
G1 X147.580 Y130.364 E4.40478
G1 X146.012 Y132.190 E4.42788
G1 X146.165 Y132.485 F15000.000
G1 X144.241 Y133.974 E4.45124 F840.000
G1 X141.998 Y135.075 E4.47523
G1 X139.579 Y135.701 E4.49922
G1 X137.083 Y135.828 E4.52321
G1 X134.614 Y135.449 E4.54719
G1 X132.270 Y134.581 E4.57118
G1 X130.150 Y133.260 E4.59517
G1 X128.339 Y131.538 E4.61916
G1 X126.911 Y129.487 E4.64315
G1 X125.926 Y127.191 E4.66714
G1 X125.422 Y124.740 E4.69117
G1 X125.359 Y123.494 E4.70314
G1 X125.422 Y122.249 E4.71511
G1 X125.926 Y119.797 E4.73914
G1 X126.911 Y117.501 E4.76313
G1 X128.339 Y115.450 E4.78712
G1 X130.150 Y113.729 E4.81111
G1 X132.270 Y112.407 E4.83510
G1 X134.614 Y111.539 E4.85909
G1 X137.083 Y111.161 E4.88308
G1 X139.579 Y111.287 E4.90706
G1 X141.998 Y111.914 E4.93105 F840.000
G1 X144.241 Y113.014 E4.95504
G1 X146.217 Y114.544 E4.97903
G1 X147.845 Y116.440 E5.00302
G1 X149.057 Y118.624 E5.02701
G1 X149.805 Y121.008 E5.05100
G1 X150.058 Y123.494 E5.07499
G1 X149.805 Y125.980 E5.09898
G1 X149.057 Y128.364 E5.12297
G1 X147.845 Y130.549 E5.14696
G1 X146.213 Y132.448 E5.17100
G1 F2100.000 E2.17100
G1 Z0.250 F15000.000
G92 E0
G1 X139.918 Y111.499 F15000.000
G1 X142.755 Y113.238 F15000.000
G1 Z0.200 F15000.000
G1 E3.00000 F2100.000
G1 X148.001 Y118.484 E3.07122 F2520.000
G1 X148.378 Y119.317 F15000.000
G1 X141.860 Y112.799 E3.15972 F2520.000
G1 X141.194 Y112.590 E3.16642
G1 X148.586 Y119.982 E3.26679
G1 X148.795 Y120.647 E3.27348
G1 X140.578 Y112.430 E3.38504
G1 X139.963 Y112.271 E3.39114
G1 X148.973 Y121.281 E3.51347
G1 X149.024 Y121.789 E3.51837
G1 X139.370 Y112.134 E3.64946
G1 X138.889 Y112.109 E3.65408
G1 X149.076 Y122.296 E3.79239
G1 X149.128 Y122.804 E3.79729
G1 X138.409 Y112.085 E3.94283
G1 X137.928 Y112.061 E3.94745
G1 X149.179 Y123.312 E4.10021
G1 X149.171 Y123.760 E4.10451
G1 X137.448 Y112.036 E4.26368
G1 X136.995 Y112.040 E4.26802
G1 X149.129 Y124.174 E4.43276
G1 X149.087 Y124.588 E4.43676
G1 X136.600 Y112.101 E4.60630
G1 X136.204 Y112.162 E4.61014
G1 X149.045 Y125.002 E4.78447
G1 X149.002 Y125.416 E4.78847
G1 X135.809 Y112.222 E4.96761
G1 X135.413 Y112.283 E4.97145
G1 X148.957 Y125.826 E5.15533
G1 X148.848 Y126.173 E5.15883
G1 X135.018 Y112.343 E5.34660
G1 X134.655 Y112.437 E5.35020
G1 X148.739 Y126.521 E5.54142
G1 X148.630 Y126.868 E5.54492
G1 X134.322 Y112.560 E5.73918
G1 X133.989 Y112.683 E5.74259
G1 X148.521 Y127.215 E5.93989
G1 X148.412 Y127.562 E5.94338
G1 X133.656 Y112.807 E6.14373
G1 X133.323 Y112.930 E6.14714
G1 X148.303 Y127.909 E6.35052
G1 X148.158 Y128.221 E6.35382
G1 X132.991 Y113.053 E6.55975
G1 X132.658 Y113.176 E6.56316
G1 X147.995 Y128.514 E6.77140
G1 X147.832 Y128.807 E6.77463
G1 X132.375 Y113.350 E6.98449
G1 X132.094 Y113.525 E6.98767
G1 X147.670 Y129.101 E7.19914
G1 X147.507 Y129.394 E7.20236
G1 X131.813 Y113.701 E7.41544
G1 X131.532 Y113.876 E7.41862
G1 X147.344 Y129.687 E7.63330
G1 X147.181 Y129.981 E7.63652
G1 X131.251 Y114.051 E7.85281
G1 X130.970 Y114.226 E7.85599
G1 X146.983 Y130.239 E8.07340
G1 X146.772 Y130.484 E8.07650
G1 X130.689 Y114.401 E8.29487
G1 X130.453 Y114.621 E8.29797
G1 X146.562 Y130.730 E8.51667
G1 X146.351 Y130.975 E8.51978
G1 X130.219 Y114.844 E8.73880
G1 X129.986 Y115.066 E8.74190
G1 X146.140 Y131.220 E8.96124
G1 X145.929 Y131.466 E8.96434
G1 X129.752 Y115.288 E9.18399
G1 X129.519 Y115.512 E9.18709
G1 X145.712 Y131.705 E9.40695
G1 X145.482 Y131.931 E9.41005
G1 X129.291 Y115.740 E9.62989
G1 X129.063 Y115.968 E9.63298
G1 X145.225 Y132.130 E9.85243
G1 X144.968 Y132.329 E9.85555
G1 X128.851 Y116.212 E10.07437
G1 X128.664 Y116.481 E10.07752
G1 X144.711 Y132.528 E10.29540
G1 X144.454 Y132.727 E10.29852
G1 X128.477 Y116.750 E10.51544
G1 X128.290 Y117.019 E10.51859
G1 X144.197 Y132.926 E10.73457
G1 X143.940 Y133.125 E10.73769
G1 X128.103 Y117.288 E10.95272
G1 X127.915 Y117.557 E10.95586
G1 X143.663 Y133.305 E11.16967
G1 X143.357 Y133.455 E11.17294
G1 X127.728 Y117.826 E11.38514
G1 X127.574 Y118.128 E11.38840
G1 X143.051 Y133.605 E11.59853
G1 X142.745 Y133.755 E11.60180
G1 X127.437 Y118.447 E11.80965
G1 X127.300 Y118.766 E11.81298
G1 X142.439 Y133.905 E12.01853
G1 X142.133 Y134.055 E12.02180
G1 X127.163 Y119.085 E12.22505
G1 X127.026 Y119.405 E12.22838
G1 X141.827 Y134.205 E12.42934
G1 X141.488 Y134.323 E12.43278
G1 X126.889 Y119.724 E12.63099
G1 X126.752 Y120.043 E12.63433
G1 X141.126 Y134.416 E12.82948
G1 X140.763 Y134.510 E12.83308
G1 X126.672 Y120.419 E13.02440
G1 X126.594 Y120.798 E13.02810
G1 X140.401 Y134.604 E13.21556
G1 X140.039 Y134.698 E13.21915
G1 X126.517 Y121.176 E13.40275
G1 X126.439 Y121.554 E13.40646
G1 X139.676 Y134.792 E13.58618
G1 X139.287 Y134.859 E13.58997
G1 X126.361 Y121.933 E13.76548
G1 X126.283 Y122.311 E13.76919
G1 X138.853 Y134.881 E13.93985
G1 X138.419 Y134.903 E13.94402
G1 X126.255 Y122.738 E14.10918
G1 X126.233 Y123.173 E14.11336
G1 X137.985 Y134.925 E14.27292
G1 X137.551 Y134.947 E14.27709
G1 X126.223 Y123.619 E14.43090
G1 X126.247 Y124.099 E14.43552
G1 X137.114 Y134.966 E14.58307
G1 X136.575 Y134.884 E14.58830
G1 X126.271 Y124.580 E14.72820
G1 X126.379 Y125.144 E14.73371
G1 X136.037 Y134.801 E14.86483
G1 X135.498 Y134.719 E14.87007
G1 X126.497 Y125.718 E14.99227
G1 X126.615 Y126.292 E14.99790
G1 X134.959 Y134.636 E15.11119
G1 X134.280 Y134.413 E15.11806
G1 X126.733 Y126.866 E15.22052
G1 X127.050 Y127.639 F15000.000
G1 X133.555 Y134.144 E15.30885 F2520.000
G1 X132.831 Y133.876 F15000.000
G1 X127.393 Y128.438 E15.38268 F2520.000
G1 X127.882 Y129.384 F15000.000
G1 X131.742 Y133.243 E15.43508 F2520.000
G1 F2100.000 E12.43508
G1 Z0.250 F15000.000
G92 E0
G1 X129.565 Y131.523 F15000.000
G1 Z0.200 F15000.000
G1 E3.00000 F2100.000
G1 X128.927 Y130.885 E3.00867 F2520.000
G1 F2100.000 E0.00867
G1 Z0.250 F15000.000
G92 E0
G1 X143.650 Y113.678 F15000.000
G1 Z0.200 F15000.000
G1 E3.00000 F2100.000
G1 X147.432 Y117.459 E3.05134 F2520.000
G1 F2100.000 E0.05134
G1 Z0.250 F15000.000
G92 E0
G1 X145.797 Y115.368 F15000.000
G1 Z0.200 F15000.000
G1 E3.00000 F2100.000
G1 X145.499 Y115.070 E3.00405 F2520.000
G1 F2100.000 E0.00405
G1 Z0.250 F15000.000
G92 E0
G1 X139.727 Y98.258 F15000.000
